icons/Finance/red-packet-line.svg

<svg viewBox="0 0 24 24" xmlns="http://www.w3.org/2000/svg"><path d="M14.178 9.76614C16.0334 9.35499 17.695 8.42842 19.0049 7.14436V4.00293H5.00488V7.14436C6.31472 8.42842 7.97632 9.35499 9.83175 9.76614C10.2621 9.01161 11.0741 8.50293 12.0049 8.50293C12.9357 8.50293 13.7477 9.01161 14.178 9.76614ZM14.3861 11.7667C14.0633 12.7739 13.1192 13.5029 12.0049 13.5029C10.8905 13.5029 9.94648 12.7739 9.6237 11.7667C7.92722 11.4252 6.36024 10.7258 5.00488 9.75083V20.0029H19.0049V9.75083C17.6495 10.7258 16.0825 11.4252 14.3861 11.7667ZM4.00488 2.00293H20.0049C20.5572 2.00293 21.0049 2.45064 21.0049 3.00293V21.0029C21.0049 21.5552 20.5572 22.0029 20.0049 22.0029H4.00488C3.4526 22.0029 3.00488 21.5552 3.00488 21.0029V3.00293C3.00488 2.45064 3.4526 2.00293 4.00488 2.00293Z"/></svg>

<svg xmlns="http://www.w3.org/2000/svg" viewBox="0 0 24 24">
    <g>
        <path fill="none" d="M0 0h24v24H0z"/>
        <path d="M14.173 9.763A9.98 9.98 0 0 0 19 7.141V4H5v3.141a9.98 9.98 0 0 0 4.827 2.622 2.5 2.5 0 0 1 4.346 0zm.208 2a2.501 2.501 0 0 1-4.762 0A11.94 11.94 0 0 1 5 9.749V20h14V9.748a11.94 11.94 0 0 1-4.619 2.016zM4 2h16a1 1 0 0 1 1 1v18a1 1 0 0 1-1 1H4a1 1 0 0 1-1-1V3a1 1 0 0 1 1-1z"/>
    </g>
</svg>
